X:110
T:Low Park (Hare's Paw) (r)
B:NFID.239a
110low_p
S:JMcK
L:1/8
M:C
R:reel
Q:360
K:G
G2BG ABGA|EE (3EDE GEDG|GFGA BABd|(3efg fd edBA|
G2BG ABGA|EE (3EDE GEDG|(3GFG GA BABd|(3efg fd e3f||
g2fg edBc|d2dd Bdd2|(3efg fg edBd|(3efg fd e3f|
g2fg edBc|d2dd Bdd2|(3efg fg edBd|(3efg fd edBA||

%%%

